X:1
T:Amboy, 77.77 D
T:Lowell Mason, 1745
T:Amboy, 77.77 D
T:Public Domain
C:Lowell Mason, 1745
Z:Public Domain
%%score ( 1 2 ) 3
L:1/8
M:3/4
K:D
V:1 treble 
V:2 treble 
V:3 bass 
V:1
 [Fd][FA] | ([FA]2 [Fd])[Fd] [Gd][GB] | [GB]4 [Bd][GB] | A[Fd] [Ee]2 [Gc]2 | [Fd]4 [Fd][FA] | %5
 ([FA]2 [Fd])[Fd] [Gd][GB] | [GB]4 [Bd][GB] | A[Fd] [Ee]2 [Gc]2 | [Fd]4 [DF][DF] | %9
 [DF]3 [DF] [DG][DF] | [DF]4 [FA][FA] | [FA]3 [FA] [GB][FA] | [FA]4 [Fd][FA] | %13
 ([FA]2 [Fd])[Fd] [Gd][GB] | [GB]4 [Bd][GB] | A[Fd] [Ee]2 [Gc]2 | [Fd]4 |] %17
V:2
 x2 | x6 | x6 | A x5 | x6 | x6 | x6 | A x5 | x6 | x6 | x6 | x6 | x6 | x6 | x6 | A x5 | x4 |] %17
V:3
 [D,A,][D,D] | ([D,D]2 [D,A,])[D,A,] [G,B,][G,D] | [G,D]4 [G,D][G,D] | %3
 [F,D][D,A,] [A,C]2 [A,,A,]2 | [D,A,]4 [D,A,][D,D] | ([D,D]2 [D,A,])[D,A,] [G,B,][G,D] | %6
 [G,D]4 [G,D][G,D] | [F,D][D,A,] [A,C]2 [A,,A,]2 | [D,A,]4 [D,A,][D,A,] | %9
 [D,A,]3 [D,A,] [D,B,][D,A,] | [D,A,]4 [D,D][D,D] | [D,D]3 [D,D] [D,D][D,D] | [D,D]4 [D,A,][D,D] | %13
 ([D,D]2 [D,A,])[D,A,] [G,B,][G,D] | [G,D]4 [G,D][G,D] | [F,D][D,A,] [A,C]2 [A,,A,]2 | [D,A,]4 |] %17

